resources/svg/sd-card-o.svg

<svg xmlns="http://www.w3.org/2000/svg" viewBox="0 0 15 15" fill="none"><path d="M6.5 3V6M8.5 3V6M10.5 3V6M2.5 14.5H12.5C13.0523 14.5 13.5 14.0523 13.5 13.5V1.5C13.5 0.947716 13.0523 0.5 12.5 0.5H5.5L1.5 4.5V13.5C1.5 14.0523 1.94772 14.5 2.5 14.5Z" stroke="black"/></svg>

<svg xmlns="http://www.w3.org/2000/svg" viewBox="0 0 15 15" fill="none"><path d="M6.5 3v3m2-3v3m2-3v3m-8 8.5h10a1 1 0 001-1v-12a1 1 0 00-1-1h-7l-4 4v9a1 1 0 001 1z" stroke="currentColor"/></svg>
